_site/images/features-page/icon-data.svg

<svg fill="none" height="40" viewBox="0 0 40 40" width="40" xmlns="http://www.w3.org/2000/svg"><path d="m32.5 40h-25c-4.1425 0-7.5-3.3575-7.5-7.5v-25c0-4.1425 3.3575-7.5 7.5-7.5h25c4.1425 0 7.5 3.3575 7.5 7.5v25c0 4.1425-3.3575 7.5-7.5 7.5z" fill="#ff647c"/><path clip-rule="evenodd" d="m29 27.0252h-6.18c-.3024-.849-.9707-1.517-1.82-1.8193v-3.1787h3.17c2.1915.072 4.0909-1.5049 4.4224-3.6715s-1.0095-4.2389-3.1224-4.825c-1.0986-2.4331-3.6737-3.84763-6.3174-3.4701-2.6437.3775-4.7195 2.4562-5.0926 5.0994-1.6828.4717-2.7596 2.112-2.5227 3.8429.237 1.7309 1.715 3.0218 3.4627 3.0243h4v3.1787c-.8493.3023-1.5176.9703-1.82 1.8193h-6.18c-.5523 0-1 .4475-1 .9996 0 .552.4477.9995 1 .9995h6.18c.4306 1.186 1.5578 1.9757 2.82 1.9757s2.3894-.7897 2.82-1.9757h6.18c.5523 0 1-.4475 1-.9995 0-.5521-.4477-.9996-1-.9996zm-13.9998-6.9971c-.8284 0-1.5-.6713-1.5-1.4993 0-.8281.6716-1.4994 1.5-1.4994.5523 0 1-.4476 1-.9996-.0054-1.9603 1.4118-3.6354 3.3465-3.9557 1.9348-.3202 3.8165.8088 4.4435 2.6662.1165.35.4163.6074.78.6697 1.1181.1864 1.9357 1.1561 1.93 2.2891-.0054 1.284-1.0454 2.3236-2.33 2.329zm4 7.9964c0 .5521.4478.9996 1 .9996.5523 0 1-.4475 1-.9996s-.4477-.9996-1-.9996c-.5522 0-1 .4475-1 .9996z" fill="#fff" fill-rule="evenodd"/></svg>

<svg width="40" height="40" viewBox="0 0 40 40" fill="none" xmlns="http://www.w3.org/2000/svg">
<path d="M32.5 40H7.5C3.3575 40 0 36.6425 0 32.5V7.5C0 3.3575 3.3575 0 7.5 0H32.5C36.6425 0 40 3.3575 40 7.5V32.5C40 36.6425 36.6425 40 32.5 40Z" fill="#FF647C"/>
<path fill-rule="evenodd" clip-rule="evenodd" d="M29 27.0252H22.82C22.5176 26.1762 21.8493 25.5082 21 25.2059V22.0272H24.17C26.3615 22.0992 28.2609 20.5223 28.5924 18.3557C28.9239 16.1891 27.5829 14.1168 25.47 13.5307C24.3714 11.0976 21.7963 9.68307 19.1526 10.0606C16.5089 10.4381 14.4331 12.5168 14.06 15.16C12.3772 15.6317 11.3004 17.272 11.5373 19.0029C11.7743 20.7338 13.2523 22.0247 15 22.0272H19V25.2059C18.1507 25.5082 17.4824 26.1762 17.18 27.0252H11C10.4477 27.0252 10 27.4727 10 28.0248C10 28.5768 10.4477 29.0243 11 29.0243H17.18C17.6106 30.2103 18.7378 31 20 31C21.2622 31 22.3894 30.2103 22.82 29.0243H29C29.5523 29.0243 30 28.5768 30 28.0248C30 27.4727 29.5523 27.0252 29 27.0252ZM15.0002 20.0281C14.1718 20.0281 13.5002 19.3568 13.5002 18.5288C13.5002 17.7007 14.1718 17.0294 15.0002 17.0294C15.5525 17.0294 16.0002 16.5818 16.0002 16.0298C15.9948 14.0695 17.412 12.3944 19.3467 12.0741C21.2815 11.7539 23.1632 12.8829 23.7902 14.7403C23.9067 15.0903 24.2065 15.3477 24.5702 15.41C25.6883 15.5964 26.5059 16.5661 26.5002 17.6991C26.4948 18.9831 25.4548 20.0227 24.1702 20.0281H15.0002ZM19.0002 28.0245C19.0002 28.5766 19.448 29.0241 20.0002 29.0241C20.5525 29.0241 21.0002 28.5766 21.0002 28.0245C21.0002 27.4724 20.5525 27.0249 20.0002 27.0249C19.448 27.0249 19.0002 27.4724 19.0002 28.0245Z" fill="white"/>
</svg>
